!!! OTL: Berkowitz519
!!! Chapter: 1
!!! Section: IV
!!! Page: 130
!!! Mode: 
!!! Encoder: DJB
**kern
*staff1
*I"Piano
=1-
*clefG2
*k[b-]
*F:
*M3/4
4cc\
4a/
4c/
=2
*M6/8
8d/L
8e/
8f/J
8g/L
8a/
8b-/J
=3
*M3/4
4cc\
4a/
4c/
=4
*M9/8
8d/L
8e/
8f/J
8g/L
8a/
8f#/J
4.g/
=5
*M3/4
4dd\
4b-\
4d/
=6
*M6/8
8e/L
8f#/
8g/J
8a\L
8b-\
8cc\J
=7
*M3/4
4dd\
4ee\
4cc\
=8
4dd\
4a/
4b-\
=9
!!linebreak:original
*M9/8
8cc\L
8b-\
8a\J
8g/L
8f/
8e/J
4.f/
==
*-
